X:190
T:Maud Miller's
R:reel
Z:Transcribed by Dave Marshall
M:C|
K:G
|: edBA GBDE | G2BG DGBd | eBdB (3ABA GA |1 Beed efgf :|2 Beed e2ge |
| dega b~g3 | agef gage | dega b~g3 | aged efge |
dega b~g3 | agef ~g3a | b~g3 gfed | Beed efgf |
